uiw/printer.svg

<svg xmlns="http://www.w3.org/2000/svg" viewBox="0 0 20 20" height="1em" width="1em">
  <path fill="#555" d="M5.39767734,0.0204346229 L15.2292883,0.0208285564 C15.85694,0.0423763964 16.3416881,0.224012937 16.6358869,0.629402499 C16.870019,0.952023312 16.9906983,1.35829622 17.0155732,1.87113493 L17.015,3.964 L18.2137151,3.96428287 C18.8413668,3.98583071 19.3261148,4.16746725 19.6203137,4.57285681 C19.8544457,4.89547762 19.975125,5.30175053 20,5.81458924 L20,13.9123389 C19.9981107,14.5379231 19.9541484,15.0061831 19.7812289,15.3295666 C19.5131341,15.8309411 19.017303,16.0527552 18.1907591,16.1187993 L17.016,16.118 L17.0164211,18.0668032 C17.0164211,18.5244038 16.9340883,18.9258347 16.7591414,19.2664921 C16.5133781,19.7450435 16.0437057,19.9857313 15.4421305,20 L4.72478658,20 C4.13097303,20 3.64259551,19.7831749 3.33894863,19.3379195 C3.09561414,18.9811037 2.96902664,18.559141 2.95441204,18.0668032 L2.954,16.118 L1.9348091,16.1187993 C1.19681947,16.1187993 0.634806579,15.898114 0.335358972,15.3860307 C0.111763278,15.0036612 0.00779657364,14.5145062 0.00195846627,13.9103171 L0.00235646553,6.02450226 C-0.0195529111,5.38888452 0.110485952,4.8682898 0.427227446,4.48164692 C0.810188045,4.0141711 1.47442024,3.88827603 2.38283066,3.96388893 L3.016,3.963 L3.01720314,2.08104795 C2.99529377,1.44543021 3.12533263,0.92483549 3.44207412,0.53819261 C3.82503472,0.070716791 4.48926692,-0.0551782744 5.39767734,0.0204346229 Z M15.677,12.151 L4.293,12.151 L4.29321924,18.0464885 C4.30007527,18.2726889 4.35216699,18.4463297 4.44502808,18.5824974 C4.47757678,18.6302255 4.54439807,18.6598922 4.72478658,18.6598922 L15.4260508,18.6600854 C15.5053626,18.6581788 15.5411646,18.6553267 15.5568034,18.6539594 L15.5681141,18.6539248 L15.5681141,18.6539248 C15.6374816,18.518852 15.6773061,18.3246794 15.6773061,18.0668032 L15.677,12.151 Z M14.2989067,16.6846927 C14.6686931,16.6846927 14.9684642,16.9846861 14.9684642,17.3547466 C14.9684642,17.7248072 14.6686931,18.0248005 14.2989067,18.0248005 L5.71990267,18.0248005 C5.35011628,18.0248005 5.05034517,17.7248072 5.05034517,17.3547466 C5.05034517,16.9846861 5.35011628,16.6846927 5.71990267,16.6846927 L14.2989067,16.6846927 Z M14.2989067,14.788386 C14.6686931,14.788386 14.9684642,15.0883794 14.9684642,15.45844 C14.9684642,15.8285005 14.6686931,16.1284939 14.2989067,16.1284939 L5.71990267,16.1284939 C5.35011628,16.1284939 5.05034517,15.8285005 5.05034517,15.45844 C5.05034517,15.0883794 5.35011628,14.788386 5.71990267,14.788386 L14.2989067,14.788386 Z M2.32892323,5.3018215 C1.7603088,5.30399674 1.62881388,5.30399674 1.50850277,5.44262892 C1.38819165,5.5812611 1.32901854,5.64012118 1.34107346,6.00140251 L1.34104182,13.9038029 C1.34477103,14.287661 1.35671079,14.4718479 1.44396087,14.6122468 C1.53121094,14.7526456 1.6234678,14.7786915 1.9348091,14.7786915 L2.954,14.778 L2.954,12.151 L2.81983679,12.1518143 C2.45005039,12.1518143 2.15027929,11.8518209 2.15027929,11.4817604 C2.15027929,11.1116998 2.45005039,10.8117065 2.81983679,10.8117065 L17.2241403,10.8117065 C17.5939267,10.8117065 17.8936978,11.1116998 17.8936978,11.4817604 C17.8936978,11.8518209 17.5939267,12.1518143 17.2241403,12.1518143 L17.016,12.151 L17.016,14.778 L18.1356389,14.7809659 C18.3438556,14.7637536 18.4634113,14.7864401 18.5712667,14.6727059 C18.6791221,14.5589718 18.659757,14.2835733 18.660885,13.9103171 L18.6617266,5.84817342 C18.6497819,5.60998355 18.6281393,5.53006637 18.5538712,5.44262892 C18.479603,5.35519146 18.424012,5.31239868 18.1907591,5.30399674 L2.32892323,5.3018215 Z M14.2989067,12.8920794 C14.6686931,12.8920794 14.9684642,13.1920727 14.9684642,13.5621333 C14.9684642,13.9321938 14.6686931,14.2321872 14.2989067,14.2321872 L5.71990267,14.2321872 C5.35011628,14.2321872 5.05034517,13.9321938 5.05034517,13.5621333 C5.05034517,13.1920727 5.35011628,12.8920794 5.71990267,12.8920794 L14.2989067,12.8920794 Z M16.0839483,5.91427136 C17.1933075,5.91427136 18.0926208,6.81425141 18.0926208,7.92443307 C18.0926208,9.03461472 17.1933075,9.93459478 16.0839483,9.93459478 C14.9745891,9.93459478 14.0752758,9.03461472 14.0752758,7.92443307 C14.0752758,6.81425141 14.9745891,5.91427136 16.0839483,5.91427136 Z M16.0839483,7.25437917 C15.7141619,7.25437917 15.4143908,7.55437252 15.4143908,7.92443307 C15.4143908,8.29449362 15.7141619,8.59448697 16.0839483,8.59448697 C16.4537347,8.59448697 16.7535058,8.29449362 16.7535058,7.92443307 C16.7535058,7.55437252 16.4537347,7.25437917 16.0839483,7.25437917 Z M4.47766164,1.38781408 C4.39616318,1.48729836 4.34386521,1.69666687 4.35592014,2.0579482 L4.355,3.963 L15.676,3.964 L15.6772998,1.90471911 C15.6653552,1.66652924 15.6181107,1.50747817 15.552373,1.41689544 C15.5467023,1.40908146 15.4395852,1.36894437 15.2063324,1.36054243 L5.34376991,1.35836719 C4.78724844,1.31338126 4.49294099,1.36916274 4.47766164,1.38781408 Z"/>
</svg>

<svg xmlns="http://www.w3.org/2000/svg" viewBox="0 0 20 20" height="1em" width="1em">
  <path fill="#555" d="M5.398.02h9.831c.628.022 1.113.204 1.407.61.234.322.355.728.38 1.241l-.001 2.093h1.199c.627.022 1.112.203 1.406.609.234.322.355.729.38 1.242v8.097c-.002.626-.046 1.094-.219 1.418-.268.5-.764.723-1.59.789l-1.175-.001v1.949c0 .457-.082.859-.257 1.2-.246.478-.715.719-1.317.733H4.725c-.594 0-1.082-.217-1.386-.662-.243-.357-.37-.779-.385-1.271v-1.949h-1.02c-.737 0-1.3-.22-1.599-.732-.223-.382-.327-.871-.333-1.476V6.025C-.02 5.389.11 4.868.427 4.482c.383-.468 1.047-.594 1.956-.518l.633-.001.001-1.882c-.022-.636.108-1.156.425-1.543C3.825.071 4.49-.055 5.398.02Zm10.279 12.131H4.293v5.895c.007.227.06.4.152.536.033.048.1.078.28.078h10.701a2.03 2.03 0 0 0 .13-.006h.012c.07-.135.11-.33.11-.587l-.001-5.916Zm-1.378 4.534a.67.67 0 0 1 0 1.34h-8.58a.67.67 0 0 1 0-1.34h8.58Zm0-1.897a.67.67 0 0 1 0 1.34h-8.58a.67.67 0 0 1 0-1.34h8.58ZM2.329 5.302c-.569.002-.7.002-.82.14-.12.14-.18.198-.168.56v7.902c.004.384.016.568.103.708s.18.167.49.167l1.02-.001v-2.627H2.82a.67.67 0 0 1 0-1.34h14.404a.67.67 0 0 1 0 1.34h-.208v2.627l1.12.003c.208-.017.327.005.435-.108.108-.114.089-.39.09-.763V5.848c-.011-.238-.033-.318-.107-.405-.074-.088-.13-.13-.363-.139L2.329 5.302Zm11.97 7.59a.67.67 0 0 1 0 1.34h-8.58a.67.67 0 0 1 0-1.34h8.58Zm1.785-6.978a2.01 2.01 0 1 1-.002 4.02 2.01 2.01 0 0 1 .002-4.02Zm0 1.34a.67.67 0 1 0 0 1.34.67.67 0 0 0 0-1.34ZM4.478 1.388c-.082.1-.134.309-.122.67l-.001 1.905 11.321.001.001-2.06c-.012-.237-.059-.397-.125-.487-.005-.008-.112-.048-.346-.056l-9.862-.003c-.557-.045-.851.011-.866.03Z"/>
</svg>
